dist/img/bottle.svg

<?xml version="1.0" encoding="UTF-8"?>
<svg width="34px" height="63px" viewBox="0 0 34 63" version="1.1" xmlns="http://www.w3.org/2000/svg" xmlns:xlink="http://www.w3.org/1999/xlink">
    <!-- Generator: sketchtool 52.5 (67469) - http://www.bohemiancoding.com/sketch -->
    <title>6209988D-B425-42CE-8F77-80949F09F2B0</title>
    <desc>Created with sketchtool.</desc>
    <g id="Page-1" stroke="none" stroke-width="1" fill="none" fill-rule="evenodd">
        <g id="desktop" transform="translate(-438.000000, -1425.000000)" fill="#80BA27" fill-rule="nonzero">
            <g id="Group-2" transform="translate(396.000000, 1400.000000)">
                <path d="M55.1157895,25.0526316 C53.0546406,25.0526316 51.3578947,26.749378 51.3578947,28.8105263 L51.3578947,32.5684211 C51.3578947,33.2225731 51.5902191,33.8967986 52.0625,34.3690789 C52.4167104,34.7232892 52.8665417,34.9470599 53.3542763,35.0345395 C53.1695445,35.1797373 52.9392143,35.2950531 52.6496711,35.3476974 L52.6105263,35.3476974 C46.9206202,36.5967012 42.5894737,41.617498 42.5894737,47.7174342 L42.5894737,51.3578947 C42.5894737,52.935008 43.7048031,54.0533575 45.0947368,54.6069079 L45.0947368,70.65625 C43.7048031,71.2098004 42.5894737,72.3281499 42.5894737,73.9052632 L42.5894737,81.4210526 C42.5894737,84.8600963 45.4135879,87.6842105 48.8526316,87.6842105 L68.8947368,87.6842105 C72.3337805,87.6842105 75.1578947,84.8600963 75.1578947,81.4210526 L75.1578947,73.9052632 C75.1578947,72.3281499 74.0425654,71.2098004 72.6526316,70.65625 L72.6526316,54.6069079 C74.0425654,54.0533575 75.1578947,52.935008 75.1578947,51.3578947 L75.1578947,47.7174342 C75.1578947,41.617498 70.8267482,36.5967012 65.1368421,35.3476974 L65.0976974,35.3476974 C64.8081541,35.2950531 64.5778239,35.1797373 64.3930921,35.0345395 C64.8808268,34.9470599 65.330658,34.7232892 65.6848684,34.3690789 C66.1571494,33.8967986 66.3894737,33.2225731 66.3894737,32.5684211 L66.3894737,28.8105263 C66.3894737,26.749378 64.6927278,25.0526316 62.6315789,25.0526316 L55.1157895,25.0526316 Z M55.1157895,27.5578947 L62.6315789,27.5578947 C63.3262195,27.5578947 63.8842105,28.1158851 63.8842105,28.8105263 L63.8842105,32.5684211 L53.8631579,32.5684211 L53.8631579,28.8105263 C53.8631579,28.1158851 54.4211489,27.5578947 55.1157895,27.5578947 Z M55.9378289,35.0736842 L61.8095395,35.0736842 C62.2642134,36.3839662 63.1874605,37.4913963 64.6279605,37.7746711 L64.6279605,37.8138158 C64.6397353,37.8160705 64.6553305,37.8116863 64.6671053,37.8138158 C69.2305198,38.8327727 72.6526316,42.8073564 72.6526316,47.7174342 L72.6526316,51.3578947 C72.6526316,52.0525353 72.0946406,52.6105263 71.4,52.6105263 L50.1052632,52.6105263 L50.1052632,55.1157895 L70.1473684,55.1157895 L70.1473684,70.1473684 L50.1052632,70.1473684 L50.1052632,72.6526316 L70.1473684,72.6526316 L71.4,72.6526316 C72.0946406,72.6526316 72.6526316,73.2106226 72.6526316,73.9052632 L72.6526316,81.4210526 C72.6526316,83.4935879 70.9672722,85.1789474 68.8947368,85.1789474 L48.8526316,85.1789474 C46.7800963,85.1789474 45.0947368,83.4935879 45.0947368,81.4210526 L45.0947368,73.9052632 C45.0947368,73.2106226 45.6527278,72.6526316 46.3473684,72.6526316 L47.6,72.6526316 L47.6,71.4 L47.6,53.8631579 L47.6,52.6105263 L46.3473684,52.6105263 C45.6527278,52.6105263 45.0947368,52.0525353 45.0947368,51.3578947 L45.0947368,47.7174342 C45.0947368,42.8073564 48.5168487,38.8327727 53.0802632,37.8138158 C53.09899,37.8104337 53.1007938,37.7783287 53.1194079,37.7746711 C54.5599079,37.4913963 55.483155,36.3839662 55.9378289,35.0736842 Z" id="Shape"></path>
            </g>
        </g>
    </g>
</svg>

<svg width="34" height="63" viewBox="0 0 34 63" xmlns="http://www.w3.org/2000/svg" xmlns:xlink="http://www.w3.org/1999/xlink"><g id="Page-1" stroke="none" stroke-width="1" fill="none" fill-rule="evenodd"><g id="desktop" transform="translate(-438 -1425)" fill="#80BA27" fill-rule="nonzero"><g id="Group-2" transform="translate(396 1400)"><path d="M55.116 25.053a3.776 3.776 0 0 0-3.758 3.758v3.757c0 .655.232 1.329.705 1.801.354.354.804.578 1.291.666a1.58 1.58 0 0 1-.704.313h-.04c-5.69 1.249-10.02 6.27-10.02 12.37v3.64c0 1.577 1.115 2.695 2.505 3.249v16.05c-1.39.553-2.506 1.671-2.506 3.248v7.516c0 3.44 2.825 6.263 6.264 6.263h20.042c3.439 0 6.263-2.824 6.263-6.263v-7.516c0-1.577-1.115-2.695-2.505-3.249v-16.05c1.39-.553 2.505-1.671 2.505-3.248v-3.64c0-6.1-4.331-11.121-10.021-12.37h-.04a1.578 1.578 0 0 1-.704-.313 2.416 2.416 0 0 0 1.292-.666c.472-.472.704-1.146.704-1.8V28.81a3.776 3.776 0 0 0-3.757-3.758h-7.516zm0 2.505h7.516c.694 0 1.252.558 1.252 1.253v3.757h-10.02v-3.757c0-.695.557-1.253 1.252-1.253zm.822 7.516h5.872c.454 1.31 1.377 2.417 2.818 2.7v.04c.012.002.027-.002.04 0 4.563 1.019 7.985 4.993 7.985 9.903v3.64a1.25 1.25 0 0 1-1.253 1.254H50.105v2.505h20.042v15.031H50.105v2.506H71.4c.695 0 1.253.558 1.253 1.252v7.516a3.762 3.762 0 0 1-3.758 3.758H48.853a3.762 3.762 0 0 1-3.758-3.758v-7.516c0-.694.558-1.252 1.252-1.252H47.6V52.61h-1.253a1.249 1.249 0 0 1-1.252-1.253v-3.64c0-4.91 3.422-8.885 7.985-9.904.019-.004.02-.036.04-.04 1.44-.283 2.363-1.39 2.818-2.7z" id="Shape"/></g></g></g></svg>
